ACP3/Modules/ACP3/System/Resources/Assets/svgs/solid/baby-carriage.svg

<svg xmlns="http://www.w3.org/2000/svg" viewBox="0 0 512 512"><!--! Font Awesome Free 6.1.2 by @fontawesome - https://fontawesome.com License - https://fontawesome.com/license/free (Icons: CC BY 4.0, Fonts: SIL OFL 1.1, Code: MIT License) Copyright 2022 Fonticons, Inc. --><path d="M255.1 192H.1398C2.741 117.9 41.34 52.95 98.98 14.1C112.2 5.175 129.8 9.784 138.9 22.92L255.1 192zM384 160C384 124.7 412.7 96 448 96H480C497.7 96 512 110.3 512 128C512 145.7 497.7 160 480 160H448V224C448 249.2 442.2 274.2 430.9 297.5C419.7 320.8 403.2 341.9 382.4 359.8C361.6 377.6 336.9 391.7 309.7 401.4C282.5 411 253.4 416 223.1 416C194.6 416 165.5 411 138.3 401.4C111.1 391.7 86.41 377.6 65.61 359.8C44.81 341.9 28.31 320.8 17.05 297.5C5.794 274.2 0 249.2 0 224H384L384 160zM31.1 464C31.1 437.5 53.49 416 79.1 416C106.5 416 127.1 437.5 127.1 464C127.1 490.5 106.5 512 79.1 512C53.49 512 31.1 490.5 31.1 464zM416 464C416 490.5 394.5 512 368 512C341.5 512 320 490.5 320 464C320 437.5 341.5 416 368 416C394.5 416 416 437.5 416 464z"/></svg>

<svg xmlns="http://www.w3.org/2000/svg" viewBox="0 0 512 512"><!--! Font Awesome Free 6.2.0 by @fontawesome - https://fontawesome.com License - https://fontawesome.com/license/free (Icons: CC BY 4.0, Fonts: SIL OFL 1.1, Code: MIT License) Copyright 2022 Fonticons, Inc. --><path d="M256 192H.1C2.7 117.9 41.3 52.9 99 14.1c13.3-8.9 30.8-4.3 39.9 8.8L256 192zm128-32c0-35.3 28.7-64 64-64h32c17.7 0 32 14.3 32 32s-14.3 32-32 32l-32 0v64c0 25.2-5.8 50.2-17 73.5s-27.8 44.5-48.6 62.3s-45.5 32-72.7 41.6S253.4 416 224 416s-58.5-5-85.7-14.6s-51.9-23.8-72.7-41.6s-37.3-39-48.6-62.3S0 249.2 0 224l224 0 160 0V160zM80 512c-26.5 0-48-21.5-48-48s21.5-48 48-48s48 21.5 48 48s-21.5 48-48 48zm336-48c0 26.5-21.5 48-48 48s-48-21.5-48-48s21.5-48 48-48s48 21.5 48 48z"/></svg>
